X:894
T:Up and Waur Them A' Willie
R:Reel
B:The Athole Collection
M:C|
L:1/8
K:A
a|A/A/A cA d2df|A/A/A cA B2 Bc|A/A/A cA defa|edcB A2A:|
|:g|afec defg|afec B2Bg|afec defa|edcB A2A:|

